X: 269
T: Gua yiegui
%%abc-version 2.0
%%abcx-abcm2ps-target-version 5.9.1 (29 Sep 2008)
%%abc-creator hum2abc beta
%%abcx-conversion-date 2013/10/02 07:52:29
%%abc-edited-by Helmut Schaffrath
%%humdrum-veritas 2993289518
%%humdrum-veritas-data 2018567655
%%continueall 1
%%barnumbers 0
L: 1/16
M: 2/4
K: D
A2 d2 d2 d F [I:setbarnb 1]| 
A2 B A F2 E2 | 
d2> e2 a b a f | 
e6f e | 
d2> e2 a2 f e | 
d2 e d B2 A2 | 
A2> B2 d2 e d | 
A8 |]  



